app/dist/common/images/chrysalis-investments-ltd.svg

<svg fill="none" height="18" viewBox="0 0 18 18" width="18" xmlns="http://www.w3.org/2000/svg"><path d="m0 0h18v18h-18z" fill="#f0f3fa"/><g fill="#000"><path d="m12 6v-1h1v1zm0 7v-6h1v6z"/><path d="m7.18416 13c-2.21803 0-3.16439-2.0366-3.18416-4 .01949-1.97153.96535-4 3.1901-4 1.27553 0 2.41954.75217 2.80792 1.98637l-.71089.28736c-.33224-.8998-1.13751-1.27373-2.10297-1.27373-1.76894 0-2.16512 1.48036-2.18416 2.9979.01857 1.5147.42715 3.0021 2.1901 3.0021.97426 0 1.70099-.2942 2.08515-1.2381l.72475.2727c-.5341 1.2824-1.51153 1.9654-2.81584 1.9654z"/></g></svg>

<!-- by TradingView --><svg width="18" height="18" viewBox="0 0 18 18" fill="none" xmlns="http://www.w3.org/2000/svg">
<rect width="18" height="18" fill="#F0F3FA"/>
<path d="M12 6V5H13V6H12ZM12 13L12 7H13L13 13H12Z" fill="black"/>
<path d="M7.18416 13C4.96613 13 4.01977 10.9634 4 9C4.01949 7.02847 4.96535 5 7.1901 5C8.46563 5 9.60964 5.75217 9.99802 6.98637L9.28713 7.27373C8.95489 6.37393 8.14962 6 7.18416 6C5.41522 6 5.01904 7.48036 5 8.9979C5.01857 10.5126 5.42715 12 7.1901 12C8.16436 12 8.89109 11.7058 9.27525 10.7619L10 11.0346C9.4659 12.317 8.48847 13 7.18416 13Z" fill="black"/>
</svg>
